icons/svg/special_poi/eiffel_tower.svg

<?xml version="1.0" encoding="UTF-8" standalone="no"?>
<!-- Created with Inkscape (http://www.inkscape.org/) -->

<svg
   xmlns:dc="http://purl.org/dc/elements/1.1/"
   xmlns:cc="http://creativecommons.org/ns#"
   xmlns:rdf="http://www.w3.org/1999/02/22-rdf-syntax-ns#"
   xmlns:svg="http://www.w3.org/2000/svg"
   xmlns="http://www.w3.org/2000/svg"
   xmlns:sodipodi="http://sodipodi.sourceforge.net/DTD/sodipodi-0.dtd"
   xmlns:inkscape="http://www.inkscape.org/namespaces/inkscape"
   version="1.0"
   width="580"
   height="580"
   id="svg2"
   sodipodi:version="0.32"
   inkscape:version="0.48.4 r9939"
   sodipodi:docname="coliseum.svg"
   inkscape:output_extension="org.inkscape.output.svg.inkscape">
  <metadata
     id="metadata2975">
    <rdf:RDF>
      <cc:Work
         rdf:about="">
        <dc:format>image/svg+xml</dc:format>
        <dc:type
           rdf:resource="http://purl.org/dc/dcmitype/StillImage" />
        <cc:license
           rdf:resource="http://web.resource.org/cc/PublicDomain" />
        <dc:language>en</dc:language>
        <dc:title></dc:title>
      </cc:Work>
    </rdf:RDF>
  </metadata>
  <sodipodi:namedview
     inkscape:window-height="995"
     inkscape:window-width="1280"
     inkscape:pageshadow="2"
     inkscape:pageopacity="0.0"
     guidetolerance="10.0"
     gridtolerance="10.0"
     objecttolerance="10.0"
     borderopacity="1.0"
     bordercolor="#666666"
     pagecolor="#ffffff"
     id="base"
     inkscape:zoom="0.46083856"
     inkscape:cx="447.17446"
     inkscape:cy="429.58033"
     inkscape:window-x="0"
     inkscape:window-y="0"
     inkscape:current-layer="svg2"
     showgrid="false"
     inkscape:window-maximized="1" />
  <defs
     id="defs4">
    <inkscape:perspective
       sodipodi:type="inkscape:persp3d"
       inkscape:vp_x="0 : 290 : 1"
       inkscape:vp_y="0 : 1000 : 0"
       inkscape:vp_z="580 : 290 : 1"
       inkscape:persp3d-origin="290 : 193.33333 : 1"
       id="perspective2441" />
    <inkscape:perspective
       id="perspective3452"
       inkscape:persp3d-origin="30 : 20 : 1"
       inkscape:vp_z="60 : 30 : 1"
       inkscape:vp_y="0 : 1000 : 0"
       inkscape:vp_x="0 : 30 : 1"
       sodipodi:type="inkscape:persp3d" />
  </defs>
  <g
     id="g1327">
    <path
       d="M 66.275,1.768 C 24.94,1.768 1.704,23.139 1.704,66.804 L 1.704,516.927 C 1.704,557.771 22.599,579.156 63.896,579.156 L 515.92,579.156 C 557.227,579.156 578.149,558.841 578.149,516.927 L 578.149,66.804 C 578.149,24.203 557.227,1.768 514.628,1.768 C 514.624,1.768 66.133,1.625 66.275,1.768 z "
       style="fill:#111;stroke:#eee;stroke-width:3.40799999"
       id="path1329" />
  </g>
  <rect
     x="250.93002"
     y="114.18463"
     width="78.140213"
     height="39.070107"
     id="rect3"
     style="fill:#ffffff;fill-opacity:1" />
  <rect
     x="262.65118"
     y="100.50986"
     width="52.744644"
     height="33.209587"
     id="rect5"
     style="fill:#ffffff;fill-opacity:1" />
  <polygon
     transform="matrix(19.535052,0,0,19.535052,55.579385,55.57938)"
     points="12.2,0 11.8,0 11.5,3 12.5,3 "
     id="polygon7"
     style="fill:#ffffff;fill-opacity:1" />
  <path
     inkscape:connector-curvature="0"
     d="M 268.51145,133.71958 C 254.83691,290 223.58083,340.79114 205.99929,387.67526 h 48.83762 l 21.48856,-78.14022 h 29.30258 l 21.48856,78.14022 h 48.83762 C 358.37269,340.79114 327.11661,290 313.44207,133.71958 h -44.93062 z"
     id="path9"
     style="fill:#ffffff;fill-opacity:1" />
  <path
     inkscape:connector-curvature="0"
     d="m 202.09227,524.42062 c 7.81402,-29.30258 29.30258,-78.1402 87.90774,-78.1402 58.60516,0 82.04722,48.83762 87.90773,78.1402 h 68.37267 L 381.81475,407.21031 H 198.18527 l -64.46568,117.21031 h 68.37268 z"
     id="path11"
     style="fill:#ffffff;fill-opacity:1" />
</svg>

<svg width="580" height="580" viewBox="0 0 580 580" fill="none" xmlns="http://www.w3.org/2000/svg">
<g clip-path="url(#clip0)">
<path d="M66.2751 1.76799C24.9401 1.76799 1.7041 23.139 1.7041 66.804V516.927C1.7041 557.771 22.5991 579.156 63.8961 579.156H515.92C557.227 579.156 578.149 558.841 578.149 516.927V66.804C578.149 24.203 557.227 1.76799 514.628 1.76799C514.624 1.76799 66.1331 1.62499 66.2751 1.76799Z" fill="#111111" stroke="#EEEEEE" stroke-width="3.408"/>
<path d="M329.07 114.185H250.93V153.255H329.07V114.185Z" fill="white"/>
<path d="M315.396 100.51H262.651V133.719H315.396V100.51Z" fill="white"/>
<path d="M293.907 55.5794H286.093L280.232 114.185H299.767L293.907 55.5794Z" fill="white"/>
<path d="M268.511 133.72C254.837 290 223.581 340.791 205.999 387.675H254.837L276.325 309.535H305.628L327.117 387.675H375.954C358.373 340.791 327.117 290 313.442 133.72H268.511Z" fill="white"/>
<path d="M202.092 524.421C209.906 495.118 231.395 446.28 290 446.28C348.605 446.28 372.047 495.118 377.908 524.421H446.28L381.815 407.21H198.185L133.719 524.421H202.092V524.421Z" fill="white"/>
</g>
<defs>
<clipPath id="clip0">
<path d="M0 0H580V580H0V0Z" fill="white"/>
</clipPath>
</defs>
</svg>
